X:16
T:Byrne's Hornpipe,aka. RDO.16
M:2/4
L:1/16
Q:1/4=90
C:untitled in ms
S:Robert D. Owen MS,Indiana,1826.
R:.Hornpipe
O:Indiana,USA
A:New Harmony
Z:vmp.Chris Partington
K:Bb
FE|DFB2 DFB2|(Ac)e2 ecAF|(DF)B2 Gcde|B4A2 FE|!
DFB2 DFB2|Ace2 ecAF|DBGe dcBA|B2B2B2:|!
|:d2|cfdB AcBG|F=EFG F2d2|cfdB AcBG|Ff=e_e cAFE|!
DFB2 DFB2|Ace2 ecAF|DBGe|dcBA|B2d2B2:|

